X: 15992
T: Gravel Walks, The
R: reel
M: 4/4
K: Adorian
|:A2eA cAeA|A/A/A eA BAGB|{G}A2 eA B/c/d ef|gedc BA G/A/B:|
A2aA gAfA|A/A/A eA BAGB|A2aA gAfa|~g3e dBGE|
G~A3 gAfA|A/A/A eA BAGE|ABcd egf/g/a|gedc BAGB|
|:c2AG ~A3B|c~E3 BGBd|cDBD ~A3f|~g3e dBGB:|
|:c2gc acgc|c/c/c gc BAGB|Bcgc acga|gedc BAGB|
c2gc Acgc|c/c/c gc BAGB|ABcd egf/g/a|gedc BAG/A/B:|

